!!!OTL: Liebeslied eines Landsknechts
!!!ARE: Europa, Mitteleuropa, Deutschland
!!!SCT: A0423
!!!YEM: Copyright 1995, estate of Helmut Schaffrath.
**kern
*ICvox
*Ivox
!! Mixed meters:  4/2; 6/2
*M6/2
*k[b-]
*F:
{2r
2f
2f
2f
=1
1cc
2cc
1dd
2dd
=2
*M4/2
1cc
2r}
{2cc
=3
2dd
2ee
2ff
2ee
=4
1dd
1b-
=5
1a
2r}
{2ee
=6
2ff
4ee
4dd
2cc
2cc
=7
2dd
4cc
4b-
2a
2b-
=8
*M6/2
1g
1f
2r}
{2f
=9
1cc
2dd
2.ee
4ff
2gg
=10
2ff
1ee
1dd}
{2dd
=11
*M4/2
2ff
4ee
4dd
2cc
2cc
=12
2dd
4cc
4b-
2a
2b-
=13
1g
1f}
==
!!!AGN: Romanze, Ballade, Lied, Kriegslied
!! Souterliedekens ad Ps. 13.
!!!ONB: ESAC (Essen Associative Code) Database: ALTDEU
!!!AMT: irregular
!!!AIN: vox
!!!EED: Helmut Schaffrath
!!!EEV: 1.0
*-
